X: 762
M: C
L: 1/8
K: Amix
V: 1
|: a |\
f/f/f af ecac | B/B/B c>A BFFB |\
V: 2 clef=bass middle=d
z |\
a2a2 a2a2 | b2b2 b2b2 |\
a2a2 a2a2 | d2e2 A2A :|\
|: z |
a2a2 a2a2 | b2b2 b2b2 |\
a2a2 a2a2 | d2e2 A2A :|

